packages/ui/src/assets/mento_logo.svg

<svg width="80" height="80" viewBox="0 0 80 80" fill="none" xmlns="http://www.w3.org/2000/svg">
<rect width="80" height="80" fill="#7005FC"/>
<g clip-path="url(#clip0_2360_6199)">
<path d="M62.5585 65.0311V61.6051H58.0036V58.9844H54.5776V61.6051H52.1582V65.0311H54.574V70.0281C54.574 72.8502 56.713 74.867 59.5351 74.867H61.7496V71.441H60.3404C58.9275 71.441 58.0036 70.6321 58.0036 69.2229V65.0311H62.5585ZM72.4734 71.441V74.867H67.4764C64.6543 74.867 62.5585 72.8538 62.5585 70.0281V65.0311H65.9845V69.2229C65.9845 70.6321 66.8688 71.441 68.2817 71.441H72.4734ZM65.9845 65.0311V61.6051H70.9815C73.8035 61.6051 75.8994 63.6183 75.8994 66.4403V71.4374H72.4734V67.2528C72.4734 65.84 71.5854 65.0347 70.1726 65.0347H65.9845V65.0311Z" fill="#F7F6FA"/>
<path d="M42.9346 74.58H39.3828V61.6093H42.9382V63.0904C43.6141 62.0479 44.9622 61.3253 46.6483 61.3253C49.7867 61.3253 51.6561 63.6081 51.6561 66.9802V74.58H48.1006V67.577C48.1006 65.7076 47.2953 64.568 45.8178 64.568C44.1821 64.568 42.9382 65.7615 42.9382 68.2528V74.58H42.9346Z" fill="#F7F6FA"/>
<path fill-rule="evenodd" clip-rule="evenodd" d="M34.5346 70.3523H38.2447C37.4645 72.973 34.8977 74.8676 31.6011 74.8676C27.6323 74.8676 24.8066 72.0132 24.8066 68.0731C24.8066 64.2049 27.6826 61.3253 31.6299 61.3253C35.4406 61.3253 38.5826 64.0503 38.3992 68.9251H28.283C28.4376 70.4565 29.5772 71.7795 31.7845 71.7795C33.0283 71.7795 34.1212 71.2367 34.5346 70.3523ZM31.5256 64.2049C32.7443 64.2049 34.0673 64.852 34.5095 66.592H28.4124C28.7503 65.1647 29.8899 64.2049 31.5256 64.2049Z" fill="#F7F6FA"/>
<path d="M4 74.5804H7.55543V68.2532C7.55543 65.7619 8.61954 64.5684 10.1474 64.5684C11.5494 64.5684 12.1714 65.7367 12.1714 67.6565V74.5804H15.7268V68.2532C15.7268 65.7619 16.7909 64.5684 18.3188 64.5684C19.7208 64.5684 20.3428 65.7367 20.3428 67.6565V74.5804H23.8982V67.0597C23.8982 63.5546 22.1366 61.3257 19.045 61.3257C17.571 61.3257 15.8311 62.1022 15.0258 63.7128C14.2457 62.2065 12.8976 61.3221 11.003 61.3221C9.42122 61.3221 8.25285 62.0771 7.55183 63.0837V61.6097H4V74.5768V74.5804Z" fill="#F7F6FA"/>
</g>
<defs>
<clipPath id="clip0_2360_6199">
<rect width="72" height="15.75" fill="white" transform="translate(4 58.9844)"/>
</clipPath>
</defs>
</svg>

<svg xmlns="http://www.w3.org/2000/svg" width="80" height="80" fill="none" viewBox="0 0 80 80"><path fill="#7005FC" d="M0 0h80v80H0z"/><g fill="#F7F6FA" clip-path="url(#a)"><path d="M62.559 65.031v-3.426h-4.555v-2.62h-3.426v2.62h-2.42v3.426h2.416v4.997c0 2.822 2.139 4.839 4.961 4.839h2.215v-3.426h-1.41c-1.413 0-2.336-.809-2.336-2.218V65.03zm9.914 6.41v3.426h-4.997c-2.822 0-4.917-2.013-4.917-4.839v-4.997h3.425v4.192c0 1.41.885 2.218 2.298 2.218zm-6.489-6.41v-3.426h4.998c2.822 0 4.917 2.013 4.917 4.835v4.997h-3.426v-4.184c0-1.413-.888-2.218-2.3-2.218h-4.189zM42.935 74.58h-3.552V61.61h3.555v1.48c.676-1.042 2.024-1.765 3.71-1.765 3.139 0 5.008 2.283 5.008 5.655v7.6h-3.555v-7.003c0-1.87-.806-3.009-2.283-3.009-1.636 0-2.88 1.194-2.88 3.685v6.327z"/><path fill-rule="evenodd" d="M34.535 70.352h3.71c-.78 2.621-3.347 4.516-6.644 4.516-3.969 0-6.794-2.855-6.794-6.795 0-3.868 2.876-6.748 6.823-6.748 3.81 0 6.953 2.725 6.77 7.6H28.282c.155 1.532 1.294 2.855 3.502 2.855 1.243 0 2.336-.543 2.75-1.428m-3.01-6.147c1.22 0 2.542.647 2.985 2.387h-6.098c.338-1.427 1.478-2.387 3.114-2.387" clip-rule="evenodd"/><path d="M4 74.58h3.555v-6.327c0-2.491 1.065-3.685 2.592-3.685 1.402 0 2.024 1.169 2.024 3.088v6.924h3.556v-6.327c0-2.491 1.064-3.685 2.592-3.685 1.402 0 2.024 1.169 2.024 3.088v6.924h3.555v-7.52c0-3.505-1.761-5.734-4.853-5.734-1.474 0-3.214.776-4.02 2.387-.78-1.507-2.127-2.39-4.022-2.39-1.582 0-2.75.754-3.451 1.76V61.61H4z"/></g><defs><clipPath id="a"><path fill="#fff" d="M4 58.984h72v15.75H4z"/></clipPath></defs></svg>
